X:172 
T:Rainy Day Jig, The
F:file ID: cre.5/172rainy
B:CRE5.050 (LÃÂÃÂÃÂÃÂ¡ na BÃÂÃÂÃÂÃÂ¡istÃÂÃÂÃÂÃÂ­)
M:6/8
Q:160
R:jig
K:G
E|DGB DGB|dcB c2e|dBG FGA|BAG ABe|
d2BAB|dcB c2e|dBG FGA|AGF G2:|
D|GBd g3|dcB c2e|dBG FGA|BAG AFD|
GBd g3|dcB c2e|dBG FGA|AGF G2:|

%%%

